SVG/bullseye.svg

<?xml version="1.0" encoding="utf-8"?>
<!-- Generated by IcoMoon.io -->
<!DOCTYPE svg PUBLIC "-//W3C//DTD SVG 1.1//EN" "http://www.w3.org/Graphics/SVG/1.1/DTD/svg11.dtd">
<svg version="1.1" xmlns="http://www.w3.org/2000/svg" xmlns:xlink="http://www.w3.org/1999/xlink" width="12" height="14" viewBox="0 0 12 14">
<path fill="#444444" d="M8 7q0 0.828-0.586 1.414t-1.414 0.586-1.414-0.586-0.586-1.414 0.586-1.414 1.414-0.586 1.414 0.586 0.586 1.414zM9 7q0-1.242-0.879-2.121t-2.121-0.879-2.121 0.879-0.879 2.121 0.879 2.121 2.121 0.879 2.121-0.879 0.879-2.121zM10 7q0 1.656-1.172 2.828t-2.828 1.172-2.828-1.172-1.172-2.828 1.172-2.828 2.828-1.172 2.828 1.172 1.172 2.828zM11 7q0-1.016-0.398-1.941t-1.066-1.594-1.594-1.066-1.941-0.398-1.941 0.398-1.594 1.066-1.066 1.594-0.398 1.941 0.398 1.941 1.066 1.594 1.594 1.066 1.941 0.398 1.941-0.398 1.594-1.066 1.066-1.594 0.398-1.941zM12 7q0 1.633-0.805 3.012t-2.184 2.184-3.012 0.805-3.012-0.805-2.184-2.184-0.805-3.012 0.805-3.012 2.184-2.184 3.012-0.805 3.012 0.805 2.184 2.184 0.805 3.012z"></path>
</svg>

<svg xmlns="http://www.w3.org/2000/svg" viewBox="0 0 12 14"><path d="M8 7q0 .828-.586 1.414T6 9t-1.414-.586T4 7t.586-1.414T6 5t1.414.586T8 7zm1 0q0-1.242-.88-2.12T6 4t-2.12.88T3 7t.88 2.12T6 10t2.12-.88T9 7zm1 0q0 1.656-1.172 2.828T6 11 3.172 9.828 2 7t1.172-2.828T6 3t2.828 1.172T10 7zm1 0q0-1.016-.398-1.94T9.536 3.464 7.942 2.4 6.002 2t-1.942.4-1.594 1.065T1.4 5.06 1.002 7 1.4 8.94t1.066 1.595T4.06 11.6 6 12t1.942-.4 1.594-1.065 1.066-1.594T11 7zm1 0q0 1.633-.805 3.012T9.01 12.196 6 13t-3.013-.804-2.184-2.184T-.002 7t.805-3.012 2.184-2.184T6 1t3.01.804 2.185 2.184T12 7z" /></svg>
